X:1550
L:1/16
Q:1/4=100
M:2/4
K:G
 D2 | G>AB>c d2g2 | e>de>f g4 | G>AB>c d2d2 | c>BA>G A4 | G>AB>c d2g2 | e>de>f g4 | G>AB>c d2d2 | 
 c>BA>G A2!fermata!d2 | BABG D2G2 | AGAG A2d2 | BABG D2!fermata!D2 | GFGF G2 |]

